X:9
T:Valzer - Il Disertori
C:Valla/Guglielmetti
M:3/4
L:1/4
K:C
e e/e/ e/e/|edc|B3-|B2A/G/|d d/d/ d/d/|dcB|A>B c/B/|
A2A/B/|ccc|cBA|eB>c|dcB|A3-|A3:|
|:A>B c/d/|e3|dcB|A2-A/B/|cBA|e3|f/e/da|e3|
egf|efe|dcB|A2 A/B/|cBA|Bcd|BAG|A3-|A3:|
